svgs/sharp-light/memo-pad.svg

<svg xmlns="http://www.w3.org/2000/svg" viewBox="0 0 448 512"><!--! Font Awesome Pro 6.6.0 by @fontawesome - https://fontawesome.com License - https://fontawesome.com/license (Commercial License) Copyright 2024 Fonticons, Inc. --><path d="M32 128l384 0 0 352L32 480l0-352zm0-32l0-64 384 0 0 64L32 96zm416 16l0-16 0-64 0-32L416 0 32 0 0 0 0 32 0 96l0 16 0 16L0 480l0 32 32 0 384 0 32 0 0-32 0-352 0-16zM112 192l-16 0 0 32 16 0 224 0 16 0 0-32-16 0-224 0zm0 96l-16 0 0 32 16 0 224 0 16 0 0-32-16 0-224 0zm0 96l-16 0 0 32 16 0 128 0 16 0 0-32-16 0-128 0z"/></svg>

<svg xmlns="http://www.w3.org/2000/svg" viewBox="0 0 448 512"><!--! Font Awesome Pro 6.4.2 by @fontawesome - https://fontawesome.com License - https://fontawesome.com/license (Commercial License) Copyright 2023 Fonticons, Inc. --><path d="M32 128H416V480H32V128zm0-32V32H416V96H32zm416 16V96 32 0H416 32 0V32 96v16 16V480v32H32 416h32V480 128 112zM112 192H96v32h16H336h16V192H336 112zm0 96H96v32h16H336h16V288H336 112zm0 96H96v32h16H240h16V384H240 112z"/></svg>
